X: 20524
T: John McClure's
R: reel
M: 4/4
K: Dmixolydian
cAGc AD~D2|BAGB A/c/A FA|cAGc AD ~D2|GFGA G2FG:|
Adde dcAG|cAGc A/c/A D2|Adde dcAF|GFGA G2FG:|

